X: 6
T: Ave Maria
N: Derived from Mou2018-Ave_Maria.krn
C: Mouton
%%abc-version 2.0
%%abcx-abcm2ps-target-version 5.9.1 (29 Sep 2008)
%%abc-creator hum2abc beta
%%abcx-conversion-date 2019/02/17 07:22:03
%%abc-edited-by Jesse Rodin
%%abc-edited-by Will Watson 13/10/2011
%%abcx-initial-encoding-date 2011/08/08/
%%humdrum-veritas 2109414935
%%humdrum-veritas-data 1937654296
%%linebreak <none>
%%barnumbers 0
L: 1/4
M: 2/1
Q: 1/2=120
%%staves [1 2 3 4]
V: 1 clef=treble
V: 2 clef=treble-8
V: 3 clef=treble-8
V: 4 clef=bass
K: C
[V:1] E8 | 
[V:2] z8 | 
[V:3] z8 | 
[V:4] A,8 | 
[V:1] G4G4 | 
[V:2] z8 | 
[V:3] B8 | 
[V:4] G,4G,4 | 
[V:1] A6GF | 
[V:2] A8 | 
[V:3] c4d4 | 
[V:4] F,8 | 
[V:1] G8 | 
[V:2] B4B4 | 
[V:3] e8 | 
[V:4] E,8 | 
[V:1] E6F2 | 
[V:2] c8 | 
[V:3] A4z4 | 
[V:4] z4A,4 | 
[V:1] G4G4 | 
[V:2] d8 | 
[V:3] B6B2 | 
[V:4] G,4G,4 | 
[V:1] A8 | 
[V:2] z4A4 | 
[V:3] c4d4 | 
[V:4] F,8 | 
[V:1] z4D4 | 
[V:2] B4B4 | 
[V:3] e4z4 | 
[V:4] E,4G,4 | 
[V:1] F4G3A | 
[V:2] c8 | 
[V:3] A4G2G2 | 
[V:4] F,2F,2E,4 | 
[V:1] B2A4G2- | 
[V:2] d4B4 | 
[V:3] F4E4 | 
[V:4] D,4z4 | 
[V:1] G2FEF3E | 
[V:2] c2c2d4 | 
[V:3] z4D4 | 
[V:4] z8 | 
[V:1] C2c3BG2 | 
[V:2] e4z4 | 
[V:3] A3Bcde2- | 
[V:4] z4C,4- | 
[V:1] c2B3AA2- | 
[V:2] z8 | 
[V:3] e2d2c2BA | 
[V:4] C,2D,2F,4 | 
[V:1] A2^G2A4 | 
[V:2] z4f4- | 
[V:3] B4z2A2 | 
[V:4] E,4D,4 | 
[V:1] z2G2A2c2- | 
[V:2] f2e2c4 | 
[V:3] B2c2A4 | 
[V:4] z8 | 
[V:1] c2B2c4 | 
[V:2] d4e4 | 
[V:3] G6A2 | 
[V:4] z4C,4- | 
[V:1] z8 | 
[V:2] z8 | 
[V:3] c2B3Ad2- | 
[V:4] C,2D,2F,4 | 
[V:1] G3AB2A2- | 
[V:2] z4f4- | 
[V:3] d2c2d2A2 | 
[V:4] E,4D,4 | 
[V:1] A2GFE3F | 
[V:2] f2e2c4 | 
[V:3] c3de2c2 | 
[V:4] A,4A,2A,2 | 
[V:1] G2A4^G2 | 
[V:2] d4e4 | 
[V:3] B2A2B4 | 
[V:4] G,2F,2E,4 | 
[V:1] A4z2A2 | 
[V:2] A4A2A2 | 
[V:3] z2c2d4 | 
[V:4] z4F,4 | 
[V:1] G4F4 | 
[V:2] B2c2d4 | 
[V:3] e4A2B2 | 
[V:4] E,4D,4 | 
[V:1] E4z4 | 
[V:2] z4c4 | 
[V:3] c3de4 | 
[V:4] A,8 | 
[V:1] F4G4 | 
[V:2] d4e4 | 
[V:3] z4c4- | 
[V:4] z8 | 
[V:1] A6GF | 
[V:2] A8 | 
[V:3] c4d4 | 
[V:4] z4F,4 | 
[V:1] G3AF4 | 
[V:2] z8 | 
[V:3] e4A3B | 
[V:4] E,4D,4 | 
[V:1] E2A3GG2- | 
[V:2] z4c4 | 
[V:3] cdc3BG2 | 
[V:4] A,4F,2E,2 | 
[V:1] G2^F2G4 | 
[V:2] d4e4 | 
[V:3] A4z4 | 
[V:4] D,4C,4 | 
[V:1] z2A2A2A2 | 
[V:2] A4c2d2 | 
[V:3] F6ED | 
[V:4] D,4z4 | 
[V:1] c6BA | 
[V:2] e4f4 | 
[V:3] A3GA2B2 | 
[V:4] z8 | 
[V:1] G4E4 | 
[V:2] e4z4 | 
[V:3] c3BG2A2- | 
[V:4] C,8 | 
[V:1] F6E2 | 
[V:2] z8 | 
[V:3] AGB2A4 | 
[V:4] D,4F,4- | 
[V:1] D2C4B,2 | 
[V:2] f8 | 
[V:3] z4F4 | 
[V:4] F,2E,2D,4 | 
[V:1] C4G4 | 
[V:2] e4c4- | 
[V:3] G6E2 | 
[V:4] C,8 | 
[V:1] A4c4- | 
[V:2] c2d2e4 | 
[V:3] F4G4 | 
[V:4] z4C,4 | 
[V:1] c2B2A4- | 
[V:2] f8 | 
[V:3] z2d4c2 | 
[V:4] D,4F,4- | 
[V:1] A2G2A2B2 | 
[V:2] z4f4 | 
[V:3] d2G2d4 | 
[V:4] F,2E,2D,4 | 
[V:1] c6B2 | 
[V:2] e4c4- | 
[V:3] c3de4 | 
[V:4] A,6G,2 | 
[V:1] A2GFG4 | 
[V:2] c2d2e4 | 
[V:3] A4B4 | 
[V:4] F,4E,4 | 
[V:1] A6G2 | 
[V:2] A8- | 
[V:3] z2c4c2 | 
[V:4] F,6E,2 | 
[V:1] F2E2F4- | 
[V:2] A8- | 
[V:3] d2e2c4 | 
[V:4] D,2C,2F,3E, | 
[V:1] F2E2D4 | 
[V:2] A8- | 
[V:3] z4F4 | 
[V:4] D,2C,2D,4 | 
[V:1] C8- | 
[V:2] A8- | 
[V:3] F2E2F4 | 
[V:4] A,,8- | 
[V:1] C8 |]  
[V:2] A8 |]  
[V:3] E8 |]  
[V:4] A,,8 |]  



